src/Assets/icons/16-moodle/moodle-icon-nobg.svg

<svg viewBox="0 0 2000 2000" xmlns="http://www.w3.org/2000/svg" xml:space="preserve" style="fill-rule:evenodd;clip-rule:evenodd;stroke-linejoin:round;stroke-miterlimit:2">
    <path d="m137 410-49 1.5V406s159.634-119.707 473-144l2 5-114 83s31.306 21.763 45 41c0 0 9.006 2.606 18 15 0 0 29.206-42.641 131-39 101.794 3.641 152.228 55.667 158 137v245H687l-1-237s-.559-60.466-59-57c-58.441 3.466-56 57-56 57v237H456V512s-1.364-36.756-27-51c0 0-31.375 24.138-84 32 0 0-2.106 4.075-3 19-.894 14.925 0 237 0 237H227V512s-.326-26.169 3-32c0 0-4.122-66.927-1.009-67 0 0-86.028-.58-91.991-3" style="fill:#172d4d" transform="translate(-176.441 -248.615) scale(2.47006)"/>
</svg>

<?xml version="1.0" encoding="UTF-8" standalone="no"?>
<!DOCTYPE svg PUBLIC "-//W3C//DTD SVG 1.1//EN" "http://www.w3.org/Graphics/SVG/1.1/DTD/svg11.dtd">
<svg width="100%" height="100%" viewBox="0 0 2000 2000" version="1.1" xmlns="http://www.w3.org/2000/svg" xmlns:xlink="http://www.w3.org/1999/xlink" xml:space="preserve" xmlns:serif="http://www.serif.com/" style="fill-rule:evenodd;clip-rule:evenodd;stroke-linejoin:round;stroke-miterlimit:2;">
    <g transform="matrix(2.47006,0,0,2.47006,-176.441,-248.615)">
        <path d="M137,410L88,411.5L88,406C88,406 247.634,286.293 561,262L563,267L449,350C449,350 480.306,371.763 494,391C494,391 503.006,393.606 512,406C512,406 541.206,363.359 643,367C744.794,370.641 795.228,422.667 801,504L801,749L687,749L686,512C686,512 685.441,451.534 627,455C568.559,458.466 571,512 571,512L571,749L456,749L456,512C456,512 454.636,475.244 429,461C429,461 397.625,485.138 345,493C345,493 342.894,497.075 342,512C341.106,526.925 342,749 342,749L227,749L227,512C227,512 226.674,485.831 230,480C230,480 225.878,413.073 228.991,413C228.991,413 142.963,412.42 137,410" style="fill:rgb(23,45,77);"/>
    </g>
</svg>
